X:545
T: Jiangnan chaoyuan yangchengqun
N: C1963
O: China, Hunan Chengbu
S: I, 507]
R: Shange, Changan]
M: 2/4
L: 1/16
K: D
BdB6 | e2edf8 | d2f2B8 | BdB2z4
BdB6 | d2f2efede4 | e2B2B8 | B4z4
BdBB-B4 | d2f2ede6 | d2f2e8 | edB2z4
BdB6 | d2f2e8 | f2edB8 | BdB4z2

